X: 2
T: A Nation Once Again
S: Treoir, Iml 38, Uimhir 2, 2006
S: Ag Danamh Ceoil, page 29: A Nation Once Again
Z: Brian Prior
M: 2/4
L: 1/8
R: March
K: D Major
P: Intorduction
A B/c/ | d2 A2 | f2 A2 | a3 g/f/ | eA ^GA | c2 A2 | e2 c2 | g3 f/e/ | d2 |]
P: Melody
|: FG |\
A2 Bc | d2 cd | f3 e | d3 c | B2 e2 | dc Bc | e2 d2 | d2 FG | 
A2 Bc | d2 cd | f3 e | d3 c | B2 e2 | dc Bc | B2 A2 | A3 A | 
A2 B2 | c2 d2 | e3 c | A3 A | B2 c2 | d2 e2 | f4- | f2 dc | 
B2 B2 | g3 f | e2 d2 | c2 B2 | Af- f2 | e3 d | d4- |d2 A2 | 
f3 e | d2 c2 | B4- | B2 B2 | g3 f | e2 d2 | c4- | c2 A2 | 
A2 Bc | d2 cd | B2 ed | c2 de | fg- g2 | e3 d | d4- | d2 :|]
